github-repos/src/components/Logo/repo_man_logo.svg

<?xml version="1.0" encoding="UTF-8"?>
<svg width="149px" height="79px" viewBox="0 0 149 79" version="1.1" xmlns="http://www.w3.org/2000/svg" xmlns:xlink="http://www.w3.org/1999/xlink">
    <!-- Generator: Sketch 50 (54983) - http://www.bohemiancoding.com/sketch -->
    <title>repo_man_logo</title>
    <desc>Created with Sketch.</desc>
    <defs></defs>
    <g id="Screens" stroke="none" stroke-width="1" fill="none" fill-rule="evenodd">
        <g id="Desktop" transform="translate(-438.000000, -29.000000)" fill="#9B9B9B">
            <g id="repo_man_logo" transform="translate(438.000000, 29.000000)">
                <path d="M74.0420751,0 C61.8707573,0 52,9.86940408 52,22.0447816 C52,31.7842717 58.3157149,40.04599 67.0754369,42.9609354 C68.1783526,43.163926 68.5802741,42.4832308 68.5802741,41.8986178 C68.5802741,41.3762553 68.5613283,39.9891527 68.5505021,38.1500576 C62.418832,39.4816761 61.1251051,35.1945142 61.1251051,35.1945142 C60.1223314,32.6476585 58.6770382,31.9696698 58.6770382,31.9696698 C56.6755507,30.6028663 58.8286045,30.6299317 58.8286045,30.6299317 C61.0412023,30.7855578 62.2050152,32.9020734 62.2050152,32.9020734 C64.1713177,36.2703645 67.3650369,35.2973627 68.6208722,34.7330488 C68.8211563,33.3094079 69.3908833,32.3377595 70.0201542,31.7869782 C65.1253737,31.2307839 59.9788847,29.3389113 59.9788847,20.8917949 C59.9788847,18.4856794 60.8382117,16.5166703 62.2483199,14.9766481 C62.0209704,14.4191006 61.264492,12.1767308 62.4648432,9.14269765 C62.4648432,9.14269765 64.3147644,8.54996503 68.5261432,11.4026599 C70.284042,10.9127759 72.1705015,10.6691871 74.0447816,10.6597142 C75.9177084,10.6691871 77.8028147,10.9127759 79.56342,11.4026599 C83.7720923,8.54996503 85.6193069,9.14269765 85.6193069,9.14269765 C86.8223647,12.1767308 86.0658863,14.4191006 85.8398901,14.9766481 C87.2527048,16.5166703 88.1052654,18.4856794 88.1052654,20.8917949 C88.1052654,29.3605637 82.9506569,31.2240176 78.0409904,31.7693857 C78.8313005,32.4500809 79.5363546,33.7952321 79.5363546,35.8522038 C79.5363546,38.7982744 79.5092892,41.1759712 79.5092892,41.8986178 C79.5092892,42.4886439 79.9071508,43.1747522 81.0249525,42.9595821 C89.7779082,40.0378704 96.08821,31.7815652 96.08821,22.0447816 C96.08821,9.86940408 86.2174526,0 74.0420751,0" id="Fill-4"></path>
                <path d="M6.4375,54.78125 L6.4375,61.1875 L9.796875,61.1875 C11.90625,61.1875 13.15625,59.953125 13.15625,58 C13.15625,56.078125 11.828125,54.78125 9.78125,54.78125 L6.4375,54.78125 Z M6.4375,65.109375 L6.4375,73 L0.703125,73 L0.703125,50.453125 L10.359375,50.453125 C15.984375,50.453125 19.015625,53.234375 19.015625,57.890625 C19.015625,60.65625 17.625,63.1875 15.15625,64.265625 L19.671875,73 L13.234375,73 L9.359375,65.109375 L6.4375,65.109375 Z M29.546875,59.515625 C27.84375,59.515625 26.578125,60.78125 26.4375,62.546875 L32.625,62.546875 C32.53125,60.734375 31.296875,59.515625 29.546875,59.515625 Z M32.75,67.625 L37.75,67.625 C37.21875,71.140625 34.09375,73.40625 29.640625,73.40625 C24.21875,73.40625 20.984375,70.078125 20.984375,64.578125 C20.984375,59.078125 24.25,55.578125 29.453125,55.578125 C34.578125,55.578125 37.84375,58.9375 37.84375,64.140625 L37.84375,65.703125 L26.359375,65.703125 L26.359375,66.046875 C26.359375,68.078125 27.71875,69.484375 29.71875,69.484375 C31.203125,69.484375 32.359375,68.78125 32.75,67.625 Z M50.765625,55.734375 C55.0625,55.734375 57.5625,58.9375 57.5625,64.5 C57.5625,70.046875 55.078125,73.25 50.84375,73.25 C48.34375,73.25 46.46875,72.0625 45.640625,70.09375 L45.53125,70.09375 L45.53125,78.5 L39.984375,78.5 L39.984375,55.984375 L45.5,55.984375 L45.5,59.015625 L45.609375,59.015625 C46.46875,56.96875 48.3125,55.734375 50.765625,55.734375 Z M48.703125,68.921875 C50.671875,68.921875 51.90625,67.203125 51.90625,64.5 C51.90625,61.796875 50.65625,60.0625 48.703125,60.0625 C46.765625,60.0625 45.515625,61.8125 45.5,64.5 C45.515625,67.203125 46.75,68.921875 48.703125,68.921875 Z M67.90625,73.40625 C62.546875,73.40625 59.203125,70.15625 59.203125,64.484375 C59.203125,58.921875 62.625,55.578125 67.90625,55.578125 C73.21875,55.578125 76.609375,58.90625 76.609375,64.484375 C76.609375,70.171875 73.265625,73.40625 67.90625,73.40625 Z M67.90625,69.34375 C69.796875,69.34375 71,67.609375 71,64.5 C71,61.4375 69.796875,59.640625 67.90625,59.640625 C66.03125,59.640625 64.828125,61.4375 64.828125,64.5 C64.828125,67.609375 66,69.34375 67.90625,69.34375 Z M110.078125,73 L105.03125,73 L105.03125,58.921875 L104.921875,58.921875 L99.34375,72.765625 L96.0625,72.765625 L90.5,58.921875 L90.375,58.921875 L90.375,73 L85.328125,73 L85.328125,50.453125 L91.953125,50.453125 L97.640625,64.9375 L97.765625,64.9375 L103.453125,50.453125 L110.078125,50.453125 L110.078125,73 Z M120.15625,69.4375 C121.84375,69.4375 123.3125,68.40625 123.3125,66.890625 L123.3125,65.71875 L120.21875,65.921875 C118.765625,66.03125 117.953125,66.703125 117.953125,67.703125 C117.953125,68.78125 118.84375,69.4375 120.15625,69.4375 Z M118.1875,73.25 C115.03125,73.25 112.46875,71.15625 112.46875,68.078125 C112.46875,64.890625 114.921875,63.109375 119.328125,62.84375 L123.3125,62.609375 L123.3125,61.640625 C123.3125,60.28125 122.34375,59.53125 120.890625,59.53125 C119.390625,59.53125 118.4375,60.3125 118.28125,61.359375 L113.296875,61.359375 C113.453125,57.875 116.421875,55.578125 121.171875,55.578125 C125.71875,55.578125 128.734375,57.90625 128.734375,61.328125 L128.734375,73 L123.34375,73 L123.34375,70.578125 L123.234375,70.578125 C122.3125,72.296875 120.234375,73.25 118.1875,73.25 Z M131.375,73 L131.375,55.984375 L136.765625,55.984375 L136.765625,59.1875 L136.875,59.1875 C137.75,56.921875 139.53125,55.65625 142.140625,55.65625 C145.9375,55.65625 148.046875,58.03125 148.046875,62.078125 L148.046875,73 L142.515625,73 L142.515625,63.265625 C142.515625,61.328125 141.59375,60.171875 139.78125,60.171875 C138.015625,60.171875 136.921875,61.5 136.921875,63.375 L136.921875,73 L131.375,73 Z" id="Repo-Man"></path>
            </g>
        </g>
    </g>
</svg>

<svg width="149" height="79" xmlns="http://www.w3.org/2000/svg"><g fill="#9B9B9B" fill-rule="evenodd"><path d="M74.042 0C61.871 0 52 9.87 52 22.045c0 9.74 6.316 18.001 15.075 20.916 1.103.203 1.505-.478 1.505-1.062 0-.523-.019-1.91-.03-3.749-6.131 1.332-7.425-2.955-7.425-2.955-1.003-2.547-2.448-3.225-2.448-3.225-2.001-1.367.152-1.34.152-1.34 2.212.156 3.376 2.272 3.376 2.272 1.966 3.368 5.16 2.395 6.416 1.831.2-1.424.77-2.395 1.4-2.946-4.896-.556-10.042-2.448-10.042-10.895 0-2.406.86-4.375 2.27-5.915-.228-.558-.985-2.8.216-5.834 0 0 1.85-.593 6.061 2.26 1.758-.49 3.645-.734 5.519-.743 1.873.01 3.758.253 5.518.743 4.21-2.853 6.056-2.26 6.056-2.26 1.203 3.034.447 5.276.22 5.834 1.414 1.54 2.266 3.509 2.266 5.915 0 8.469-5.154 10.332-10.064 10.877.79.681 1.495 2.026 1.495 4.083 0 2.946-.027 5.324-.027 6.047 0 .59.398 1.276 1.516 1.06 8.753-2.921 15.063-11.177 15.063-20.914C96.088 9.869 86.218 0 74.042 0M6.438 54.781v6.407h3.359c2.11 0 3.36-1.235 3.36-3.188 0-1.922-1.329-3.219-3.376-3.219H6.437zm0 10.328V73H.702V50.453h9.656c5.625 0 8.657 2.781 8.657 7.438 0 2.765-1.391 5.297-3.86 6.375L19.672 73h-6.438L9.36 65.11H6.438zm23.109-5.593c-1.703 0-2.969 1.265-3.11 3.03h6.188c-.094-1.812-1.328-3.03-3.078-3.03zm3.203 8.109h5c-.531 3.516-3.656 5.781-8.11 5.781-5.421 0-8.656-3.328-8.656-8.828s3.266-9 8.47-9c5.124 0 8.39 3.36 8.39 8.563v1.562H26.359v.344c0 2.031 1.36 3.437 3.36 3.437 1.484 0 2.64-.703 3.031-1.859zm18.016-11.89c4.297 0 6.797 3.203 6.797 8.765 0 5.547-2.485 8.75-6.72 8.75-2.5 0-4.374-1.188-5.202-3.156h-.11V78.5h-5.547V55.984H45.5v3.032h.11c.859-2.047 2.703-3.282 5.156-3.282zm-2.063 13.187c1.969 0 3.203-1.719 3.203-4.422 0-2.703-1.25-4.438-3.203-4.438-1.937 0-3.187 1.75-3.203 4.438.016 2.703 1.25 4.422 3.203 4.422zm19.203 4.484c-5.36 0-8.703-3.25-8.703-8.922 0-5.562 3.422-8.906 8.703-8.906 5.313 0 8.703 3.328 8.703 8.906 0 5.688-3.343 8.922-8.703 8.922zm0-4.062c1.89 0 3.094-1.735 3.094-4.844 0-3.063-1.203-4.86-3.094-4.86-1.875 0-3.078 1.797-3.078 4.86 0 3.11 1.172 4.844 3.078 4.844zM110.078 73h-5.047V58.922h-.11l-5.577 13.844h-3.281L90.5 58.922h-.125V73h-5.047V50.453h6.625l5.688 14.484h.125l5.687-14.484h6.625V73zm10.078-3.563c1.688 0 3.156-1.03 3.156-2.546v-1.172l-3.093.203c-1.453.11-2.266.781-2.266 1.781 0 1.078.89 1.734 2.203 1.734zm-1.969 3.813c-3.156 0-5.718-2.094-5.718-5.172 0-3.187 2.453-4.969 6.86-5.234l3.984-.235v-.968c0-1.36-.97-2.11-2.422-2.11-1.5 0-2.454.782-2.61 1.828h-4.984c.156-3.484 3.125-5.78 7.875-5.78 4.547 0 7.562 2.327 7.562 5.75V73h-5.39v-2.422h-.11c-.921 1.719-3 2.672-5.046 2.672zm13.188-.25V55.984h5.39v3.203h.11c.875-2.265 2.656-3.53 5.266-3.53 3.797 0 5.906 2.374 5.906 6.421V73h-5.531v-9.734c0-1.938-.922-3.094-2.735-3.094-1.765 0-2.86 1.328-2.86 3.203V73h-5.546z"/></g></svg>
